Suru++-Ubuntu/animations/24/brasero-disc-10.svg

<!-- Created with Inkscape (http://www.inkscape.org/) -->
<svg width="24" height="24" version="1.0" xmlns="http://www.w3.org/2000/svg" xmlns:xlink="http://www.w3.org/1999/xlink">
 <path d="m12 1c-6.0719999 0-11 4.9280001-11 11 0 6.072 4.9280003 11 11 11 6.072 0 11-4.928 11-11 0-2.445101-0.797324-4.7042445-2.148438-6.53125-0.023644-0.0319726-0.061956-0.0542311-0.085937-0.0859375-0.199562-0.2638428-0.422473-0.528881-0.644531-0.7734375-0.490186-0.5398492-1.047334-1.0270866-1.632813-1.4609375l-4.039062 5.5429688c0.32731 0.2439244 0.615997 0.5313197 0.859375 0.8593747 0.508937 0.686014 0.816406 1.530048 0.816406 2.449219 0 2.277-1.848 4.125-4.125 4.125s-4.125-1.848-4.125-4.125c1e-7 -2.277 1.848-4.125 4.125-4.125zm0 6.875c0.339457 0 0.673188 0.050974 0.988281 0.1289063-0.31346-0.0775972-0.651072-0.1289063-0.988281-0.1289063zm0.988281 0.1289063c0.315094 0.077933 0.620623 0.1976148 0.902344 0.34375-0.2908-0.1537626-0.575601-0.262865-0.902344-0.34375zm-0.08594-6.9609375c0.223344 0.017946 0.425045 0.054927 0.644531 0.085937-0.212983-0.030041-0.427637-0.068345-0.644531-0.085937z" style="fill-rule:evenodd;fill:#ffffff;opacity:.5"/>
 <path d="m 12,1 v 6.875 c 0.918276,1e-7 1.765431,0.3068216 2.449219,0.8164063 L 18.488281,3.1054687 C 16.669933,1.7773327 14.422007,1.0000001 12,1 Z" style="fill:#ffffff"/>
</svg>

<?xml version="1.0" encoding="UTF-8" standalone="no"?>
<!-- Created with Inkscape (http://www.inkscape.org/) -->

<svg
   xmlns:dc="http://purl.org/dc/elements/1.1/"
   xmlns:cc="http://creativecommons.org/ns#"
   xmlns:rdf="http://www.w3.org/1999/02/22-rdf-syntax-ns#"
   xmlns:svg="http://www.w3.org/2000/svg"
   xmlns="http://www.w3.org/2000/svg"
   xmlns:xlink="http://www.w3.org/1999/xlink"
   xmlns:sodipodi="http://sodipodi.sourceforge.net/DTD/sodipodi-0.dtd"
   xmlns:inkscape="http://www.inkscape.org/namespaces/inkscape"
   version="1.0"
   width="24"
   height="24"
   id="svg2465"
   inkscape:version="0.92.2 (unknown)"
   sodipodi:docname="brasero-disc-10.svg">
  <metadata
     id="metadata14">
    <rdf:RDF>
      <cc:Work
         rdf:about="">
        <dc:format>image/svg+xml</dc:format>
        <dc:type
           rdf:resource="http://purl.org/dc/dcmitype/StillImage" />
        <dc:title></dc:title>
      </cc:Work>
    </rdf:RDF>
  </metadata>
  <sodipodi:namedview
     pagecolor="#ffffff"
     bordercolor="#666666"
     borderopacity="1"
     objecttolerance="10"
     gridtolerance="10"
     guidetolerance="10"
     inkscape:pageopacity="0"
     inkscape:pageshadow="2"
     inkscape:window-width="1920"
     inkscape:window-height="1013"
     id="namedview12"
     showgrid="false"
     inkscape:zoom="37.727273"
     inkscape:cx="11"
     inkscape:cy="11"
     inkscape:window-x="0"
     inkscape:window-y="34"
     inkscape:window-maximized="1"
     inkscape:current-layer="svg2465" />
  <defs
     id="defs2467">
    <linearGradient
       id="linearGradient3587-6-5">
      <stop
         id="stop3589-9-2"
         style="stop-color:#e6e6e6;stop-opacity:1;"
         offset="0" />
      <stop
         id="stop3591-7-4"
         style="stop-color:#ffffff;stop-opacity:1;"
         offset="1" />
    </linearGradient>
    <linearGradient
       x1="15.669166"
       y1="-2.6219723"
       x2="15.669166"
       y2="11.969362"
       id="linearGradient2390"
       xlink:href="#linearGradient3587-6-5"
       gradientUnits="userSpaceOnUse"
       gradientTransform="matrix(0.9302326,0,0,1.2359551,-11.575969,5.1536003)" />
    <linearGradient
       x1="35.007519"
       y1="23.178743"
       x2="35.007519"
       y2="4.9945626"
       id="linearGradient2393"
       xlink:href="#linearGradient3587-6-5"
       gradientUnits="userSpaceOnUse"
       gradientTransform="translate(-25.785715,-3.035714)" />
  </defs>
  <path
     d="M 12,1 C 5.9280001,1 0.9999997,5.9280001 1,12 1,18.072 5.9280003,23 12,23 18.072,23 23,18.072 23,12 23,9.554899 22.202676,7.2957555 20.851562,5.46875 20.827918,5.4367774 20.789606,5.4145189 20.765625,5.3828125 20.566063,5.1189697 20.343152,4.8539315 20.121094,4.609375 19.630908,4.0695258 19.07376,3.5822884 18.488281,3.1484375 L 14.449219,8.6914063 C 14.776529,8.9353307 15.065216,9.222726 15.308594,9.550781 15.817531,10.236795 16.125,11.080829 16.125,12 16.125,14.277 14.277,16.125 12,16.125 9.723,16.125 7.875,14.277 7.875,12 7.8750001,9.723 9.723,7.875 12,7.875 Z m 0,6.875 c 0.339457,0 0.673188,0.050974 0.988281,0.1289063 C 12.674821,7.9263091 12.337209,7.875 12,7.875 Z m 0.988281,0.1289063 c 0.315094,0.077933 0.620623,0.1976148 0.902344,0.34375 -0.2908,-0.1537626 -0.575601,-0.262865 -0.902344,-0.34375 z m -0.08594,-6.9609375 c 0.223344,0.017946 0.425045,0.054927 0.644531,0.085937 -0.212983,-0.030041 -0.427637,-0.068345 -0.644531,-0.085937 z"
     id="path3170"
     style="display:inline;overflow:visible;visibility:visible;opacity:0.5;fill:#ffffff;fill-opacity:1;fill-rule:evenodd;stroke:none;stroke-width:1.375;stroke-linecap:butt;stroke-linejoin:miter;stroke-miterlimit:4;stroke-dasharray:none;stroke-dashoffset:0;stroke-opacity:1;marker:none;marker-start:none;marker-mid:none;marker-end:none;enable-background:accumulate"
     inkscape:connector-curvature="0" />
  <path
     d="m 12,1 v 6.875 c 0.918276,1e-7 1.765431,0.3068216 2.449219,0.8164063 L 18.488281,3.1054687 C 16.669933,1.7773327 14.422007,1.0000001 12,1 Z"
     id="path3288"
     style="display:inline;overflow:visible;visibility:visible;opacity:1;fill:#ffffff;fill-opacity:1;fill-rule:nonzero;stroke:none;stroke-width:1.375;stroke-linecap:butt;stroke-linejoin:miter;stroke-miterlimit:4;stroke-dasharray:none;stroke-dashoffset:0;stroke-opacity:1;marker:none;marker-start:none;marker-mid:none;marker-end:none;enable-background:accumulate"
     inkscape:connector-curvature="0" />
</svg>
